X: 3119
T: Beaton's Blue Bonnet
R: slip jig
M: 9/8
K: Amajor
|:AAA ecc cBB|AAA ecc fee|AAA ecc cBB|a2f ecc fee:|
|:e2f a2e fec|f3 ecA cBB|e2f a2e fec|af2 ecc fee:|
|:A2c efc eBc|A2c eae fce|A2c efc eBc|af2 ecc fee:|
|:c2e faf ece|fce ecA cBB|c2e faf ece|af2 ecc fee:|

